packages/core/src/svgs/wallets/branded/argent.svg

<svg width="24" height="24" viewBox="0 0 24 24" fill="none" xmlns="http://www.w3.org/2000/svg">
<path d="M14.5733 3H9.4266C9.2548 3 9.11675 3.14061 9.11309 3.31551C9.00909 8.22739 6.48036 12.8895 2.12789 16.1918C1.98984 16.2968 1.95825 16.4935 2.05917 16.6354L5.07044 20.867C5.17291 21.011 5.37262 21.0435 5.51311 20.9378C8.23449 18.8867 10.4236 16.4119 12.0001 13.6689C13.5763 16.4119 15.7654 18.8867 18.4871 20.9378C18.6273 21.0435 18.827 21.011 18.9295 20.867L21.9407 16.6354C22.0417 16.4935 22.0104 16.2968 21.872 16.1918C17.5195 12.8895 14.9908 8.22739 14.8868 3.31551C14.8831 3.14061 14.7454 3 14.5733 3Z" fill="#FF875B"/>
</svg>

<svg xmlns="http://www.w3.org/2000/svg" width="24" height="24" fill="none" viewBox="0 0 24 24">
    <path fill="#FF875B" d="M14.573 3H9.427c-.172 0-.31.14-.314.316C9.01 8.227 6.48 12.89 2.128 16.192a.323.323 0 0 0-.069.443l3.011 4.232a.313.313 0 0 0 .443.07c2.721-2.05 4.91-4.525 6.487-7.268 1.576 2.743 3.765 5.218 6.487 7.269.14.106.34.073.443-.071l3.01-4.232a.323.323 0 0 0-.068-.443c-4.352-3.302-6.881-7.965-6.985-12.876A.317.317 0 0 0 14.573 3"/>
</svg>
